X:1
T:James Gibb editions
T:Psalm 141 (Becker) - Schütz
%%score [ ( 1 2 ) ( 3 4 ) ]
L:1/8
Q:1/4=98
M:2/2
K:C
V:1 treble nm="Soprano Alto"
V:2 treble 
V:3 bass nm="Tenor Bass"
V:4 bass 
V:1
"^Cornelius Becker\n(1561-1604)""^Psalm 141, SWV 246""^Heinrich Schütz\n(1585-1672)" d4 B4 | %1
w: ~Herr, mein|
 c2 A4 G2 | A2 B2 G4 | A4 c4 | d2 _B4 A2 | G4 A4 | c4 d4 |[M:2/2] B2 c4 A2 | _B2 G2 A4 | F4 G4 | %10
w: Gott, wenn ich|ruf zu dir,|ver- nimm|meins Fle- hens|Stim- me,|ich ruf|dich an, eil|her zu mir,|Herr, laß|
 E2 F4 D2 | E4 D4 | A4 F4 | c2 A4 G2 | A2 (GF) E4 | G4 A4 | B2 c4 c2 | d4 G4 | z2 c4 A2 | F4 E4 | %20
w: mich Gna- de|fin- den,|daß ich|ja nicht mein|Le- ben * führ|nach der|Gott- lo- sen|Wei- se,|ih- re|Spei- se|
 z2 A2 F2 _B2 | A4 G4 | F4 C4 | G4 A2 F2- | F2 D2 E4 | D8 |] %26
w: keins- wegs be-|gehr ich|mir, hüt|mich da- vor|* mit Flei-|ße.|
V:2
 F4 E4 | E2 D4 G,2 | D2 B,2 E4 | F4 E4 | A2 G4 F2 | D4 E4 | A4 A4 |[M:2/2] G2 G4 F2 | F2 G2 C4 | %9
 D4 D4 | C2 C4 D2 | (D2 ^C2) D4 | A,4 D4 | C4 F2 G2 | C2 D2 G,4 | E4 E4 | E2 A4 G2 | F4 E4 | %18
 z2 E4 E2 | D4 ^C4 | z2 C2 D2 D2 | C4 C4 | C4 G,4 | D4 A,2 A,2- | A,2 D2 (D2 ^C2) | D8 |] %26
V:3
 A,4 G,4 | A,2 F,4 C2 | A,2 D2 C4 | C4 C4 | A,2 D4 ^C2 | D4 ^C4 | E4 A,4 |[M:2/2] D2 G,4 C2 | %8
 D2 (C_B,) A,4 | A,4 D,4 | G,2 A,4 F,2 | (_B,2 A,2) A,4 | F,4 A,4 | G,2 C4 C2 | A,2 B,2 C4 | %15
 B,4 C4 | %16
"^2. Wenn mich schlägt ein gerechter Mann,\nstraft mich freundlich in Zeiten,\nwill ich mirs baß gefallen lan \nals Balsam auf mein'm Haupte.\nIch fleh vor deinem Angesicht, \nwollst, Herr, mich nicht verlassen,\ndu kannst machen, \ndaß nicht bewält'gen mich\ndie Feinde, die mich hassen.\n\n3. Auf dich mein Augen sind gericht, \nzu dir steht mein Vertrauen,\nHerr, Herr, verstoß mein Seele nicht; \nauf mich in Gnaden schaue!\nIch wird frei ledig rühmen noch \nmit fröhlichem Gemüte \ndeine Güte \nUnd dich, Herr, preisen hoch, \ndaß du mich wohl behütest." B,2 A,4 C2- | %17
 C2 B,2 C4 | z2 A,4 E,2 | A,4 A,4 | z2 F,2 D,2 G,2- | G,2 F,4 E,2 | F,4 E,4 | D,4 E,2 F,2- | %24
 F,2 F,2 (_B,2 A,2) | A,8 |] %26
V:4
 D,4 E,4 | A,,2 D,4 E,2 | F,2 G,2 C,4 | F,4 A,4 | ^F,2 G,4 A,2 | _B,4 A,4 | A,4 ^F,4 | %7
[M:2/2] G,2 E,4 F,2 | D,2 E,2 F,4 | D,4 B,,4 | C,2 A,,4 _B,,2 | (G,,2 A,,2) D,4 | D,4 D,4 | %13
 E,2 F,4 E,2 | F,2 D,2 C,4 | E,4 A,4 | G,2 F,4 E,2 | D,4 C,4 | z2 A,,4 ^C,2 | D,4 A,,4 | %20
 z2 F,,2 _B,,2 G,,2 | A,,4 C,4 | F,,4 C,4 | B,,4 ^C,2 D,2- | D,2 _B,,2 (G,,2 A,,2) | D,8 |] %26

